!!!COM: Richard Strauss
!!!CNT: Deutscher
!!!TXO: Deutsche 
!!!OTL: Aus den Liedern der Trauer
!!!OPS: Opus 17
!!!ONM: No. 4
!!!LYR: A. F. von Schack
!!!ENC: Brian Bice
!!!YOR: Lieder, Complete Edition, vol. 1
!!!ODT: 1887/
!!NB: Vocal melody and text only encoded.
**kern	**silbe
*clefG2	*
*k[b-e-a-d-g-c-]	*
*M6/4	*
=1	=1
2r	.
4r	.
2r	.
{4g-	{Von
=2	=2
2g-	dunk-
4a-	-lem
4.b-	Schlei-
8b-	-er
4b-	um-
=3	=3
2ee-	-spon-
4e-}	-nen}
4r	.
{4e-	{ist
8e-	mir
8f	das
=4	=4
4.g-	Ta-
8a-	-ges-
4a-}	-licht,}
2r	.
{4cc-	{wohl
=5	=5
2cc-	stei-
4e-	-gen
(4.g-	neu
8cc-)	|
4ee-	e
=6	=6
2ff	Son-
4ee-}	-nen}
2r	.
{4ee-	{ich
=7	=7
2.ee-	seh'
2.b-	sie
=8	=8
2b-}	nicht.}
4r	.
2r	.
4r	.
=9	=9
8r	.
{8g-	{Mir
4.g-	schweift
8a-	der
2b-}	Blick}
4r	.
=10	=10
8r	.
{8g-	{hin-
4g-	-u2-
8g-	-ber
8a-	in
2cc-	Wei-
4b-	-ten,
=11	=11
4r	.
[2ddn	da2m-
4.ddn]	|
8dn	-mer-
4dn}	-fern:}
=12	=12
8r	.
{8f#	{vom
(4f#	Him-
8g#)	|
8a#	-mel
2bn}	blinkt}
{4ddn	{ein
=13	=13
2ggn	tru2-
4gn	-ber
(4.gn	ein-
8an)	|
8b-	-sa-
8ccn	-mer
=14	=14
[2.dd-	Stern.
4dd-]}	|}
4r	.
4r	.
=15	=15
2r	.
4r	.
2r	.
{4b-	{Ein
=16	=16
2b-	Ma2d-
4cc-	-chen,
2dd-	bleich
4dd-	von
=17	=17
2dd-	Wan-
4g-}	-gen,}
4r	.
{4g-	{winkt
8g-	mir
8a-	von
=18	=18
4.b-	dru2-
8cc-	-ben
4cc-}	zu:}
4r	.
{4bn	{ich
8bn	bin
8bn	vor-
=19	=19
2gg#	-an-
4een	-ge-
4bn	-gan-
4g#}	-gen;}
4r	.
=21	=21
8r	.
{8ee-	{was
[2ee-	zo2-
4.ee-]	|
8e-	-gerst
4e-}	du?}
*-	*-
